icon/mi/car-repair.svg

<?xml version="1.0" encoding="UTF-8"?>
<svg viewBox="0 0 15 15" xmlns="http://www.w3.org/2000/svg" id="car-repair" height="1em" width="1em">
  <path d="M3 5C3.74028 5 4.38662 4.5978 4.73243 4H12C12.5523 4 13 3.55228 13 3 13 2.44772 12.5523 2 12 2H4.73243C4.38662 1.4022 3.74028 1 3 1 2.25972 1 1.61337 1.4022 1.26756 2H3V4H1.26756C1.61337 4.5978 2.25972 5 3 5ZM2.14645 9.35355C2.05268 9.44732 2 9.5745 2 9.70711V13.5C2 13.7761 2.22386 14 2.5 14H4C4.27614 14 4.5 13.7761 4.5 13.5V13H10.5V13.5C10.5 13.7761 10.7239 14 11 14H12.5C12.7761 14 13 13.7761 13 13.5V9.70711C13 9.5745 12.9473 9.44732 12.8536 9.35355L12 8.5 10.6456 6.24275C10.5553 6.09215 10.3925 6 10.2169 6H4.78309C4.60746 6 4.44471 6.09215 4.35435 6.24275L3 8.5 2.14645 9.35355ZM11.1338 9H3.86622L5.06619 7H9.93381L11.1338 9ZM5.5 10.8279V11.2C5.5 11.3657 5.36568 11.5 5.2 11.5H3.3C3.13431 11.5 3 11.3657 3 11.2V10.3659C3 10.1766 3.1732 10.0346 3.35883 10.0718L5.17844 10.4357C5.36541 10.4731 5.5 10.6372 5.5 10.8279ZM12 10.4879V11.2C12 11.3657 11.8657 11.5 11.7 11.5H9.8C9.63431 11.5 9.5 11.3657 9.5 11.2V10.7459C9.5 10.6029 9.60094 10.4798 9.74116 10.4518L11.5216 10.0957C11.7691 10.0462 12 10.2355 12 10.4879Z"/>
</svg>

<svg width="15" height="15" xmlns="http://www.w3.org/2000/svg"><path d="M3 5a2 2 0 0 0 1.732-1H12a1 1 0 1 0 0-2H4.732a2 2 0 0 0-3.464 0H3v2H1.268A2 2 0 0 0 3 5Zm-.854 4.354A.5.5 0 0 0 2 9.707V13.5a.5.5 0 0 0 .5.5H4a.5.5 0 0 0 .5-.5V13h6v.5a.5.5 0 0 0 .5.5h1.5a.5.5 0 0 0 .5-.5V9.707a.5.5 0 0 0-.146-.353L12 8.5l-1.354-2.257a.5.5 0 0 0-.43-.243H4.784a.5.5 0 0 0-.429.243L3 8.5l-.854.854ZM11.134 9H3.866l1.2-2h4.868l1.2 2ZM5.5 10.828v.372a.3.3 0 0 1-.3.3H3.3a.3.3 0 0 1-.3-.3v-.834a.3.3 0 0 1 .359-.294l1.82.364a.4.4 0 0 1 .321.392Zm6.5-.34v.712a.3.3 0 0 1-.3.3H9.8a.3.3 0 0 1-.3-.3v-.454a.3.3 0 0 1 .241-.294l1.78-.356a.4.4 0 0 1 .479.392Z"/></svg>
